src/assets/images/Dribbble.svg

<svg width="39" height="39" viewBox="0 0 39 39" fill="none" xmlns="http://www.w3.org/2000/svg">
<g clip-path="url(#clip0)">
<path fill-rule="evenodd" clip-rule="evenodd" d="M19.73 8.96143C13.9672 8.96143 9.29126 13.6374 9.29126 19.4002C9.29126 25.163 13.9672 29.839 19.73 29.839C25.4815 29.839 30.1688 25.163 30.1688 19.4002C30.1688 13.6374 25.4815 8.96143 19.73 8.96143ZM26.625 13.7732C27.8704 15.2903 28.6177 17.2264 28.6403 19.3209C28.346 19.2643 25.4023 18.6643 22.436 19.0379C22.368 18.8907 22.3114 18.7322 22.2435 18.5737C22.0623 18.1435 21.8585 17.7019 21.6547 17.283C24.9381 15.947 26.4326 14.0223 26.625 13.7732ZM19.73 10.5012C21.9944 10.5012 24.0663 11.3503 25.64 12.7429C25.4815 12.9694 24.1342 14.7696 20.9641 15.9583C19.5036 13.2751 17.8846 11.0786 17.6355 10.739C18.3035 10.5805 19.0054 10.5012 19.73 10.5012ZM15.9372 11.339C16.175 11.656 17.76 13.8638 19.2432 16.4905C15.0767 17.6 11.3971 17.5774 11.0009 17.5774C11.5783 14.8148 13.4464 12.5165 15.9372 11.339ZM10.8084 19.4115C10.8084 19.3209 10.8084 19.2304 10.8084 19.1398C11.1933 19.1511 15.5183 19.2077 19.9678 17.8717C20.2282 18.3699 20.4659 18.8794 20.6924 19.3889C20.5792 19.4228 20.4546 19.4568 20.3414 19.4908C15.7447 20.9739 13.2992 25.0272 13.0954 25.3668C11.6802 23.7931 10.8084 21.6985 10.8084 19.4115ZM19.73 28.3218C17.6695 28.3218 15.7674 27.6199 14.2616 26.4424C14.4201 26.1141 16.2316 22.6269 21.2585 20.872C21.2811 20.8607 21.2924 20.8607 21.3151 20.8494C22.5718 24.0988 23.0813 26.8273 23.2172 27.6086C22.1416 28.0727 20.9641 28.3218 19.73 28.3218ZM24.7003 26.7934C24.6098 26.2499 24.1342 23.6459 22.9681 20.4418C25.7646 20.0003 28.2101 20.7249 28.5158 20.8268C28.1309 23.3062 26.7043 25.4461 24.7003 26.7934Z" fill="#FF4000"/>
</g>
<defs>
<clipPath id="clip0">
<rect width="20.8775" height="20.8775" fill="white" transform="translate(9.29126 8.96143)"/>
</clipPath>
</defs>
</svg>

<svg width="39" height="39" fill="none" xmlns="http://www.w3.org/2000/svg"><g clip-path="url(#clip0)"><path fill-rule="evenodd" clip-rule="evenodd" d="M19.73 8.961c-5.763 0-10.439 4.676-10.439 10.44 0 5.762 4.676 10.438 10.439 10.438 5.752 0 10.439-4.676 10.439-10.439S25.48 8.961 19.73 8.961zm6.895 4.812a8.875 8.875 0 0 1 2.015 5.548c-.294-.057-3.238-.657-6.204-.283-.068-.147-.125-.306-.192-.464-.182-.43-.386-.872-.59-1.291 3.284-1.336 4.779-3.26 4.971-3.51zm-6.895-3.272c2.264 0 4.336.85 5.91 2.242-.159.226-1.506 2.027-4.676 3.215-1.46-2.683-3.08-4.88-3.328-5.219a9.067 9.067 0 0 1 2.094-.238zm-3.793.838a56.259 56.259 0 0 1 3.306 5.152c-4.166 1.109-7.846 1.086-8.242 1.086a8.958 8.958 0 0 1 4.936-6.238zm-5.129 8.072v-.271c.385.011 4.71.068 9.16-1.268.26.498.498 1.007.724 1.517-.113.034-.237.068-.35.102-4.597 1.483-7.043 5.536-7.247 5.876a8.896 8.896 0 0 1-2.287-5.956zm8.922 8.91a8.854 8.854 0 0 1-5.468-1.879c.158-.328 1.97-3.815 6.997-5.57.022-.011.033-.011.056-.023a36.864 36.864 0 0 1 1.902 6.76 8.771 8.771 0 0 1-3.487.713zm4.97-1.528c-.09-.543-.566-3.147-1.732-6.351 2.797-.442 5.242.283 5.548.385a8.84 8.84 0 0 1-3.816 5.966z" fill="#FF4000"/></g><defs><clipPath id="clip0"><path fill="#fff" transform="translate(9.291 8.961)" d="M0 0H20.878V20.878H0z"/></clipPath></defs></svg>
